X:1
T:Title
%%score { ( 1 4 ) | ( 2 3 ) }
L:1/8
M:4/4
K:Bb
V:1 treble nm="Grand Piano"
V:4 treble 
V:2 bass 
V:3 bass 
V:1
 z4 z2[Q:1/4=100] .[B,DF]2 | [Fd]2 [=E_d]>[F=d] [Ge]>[Fd] [DB]>[_EG] | [DF]6 [DB]2 | c3 c c2 B>c | %4
[M:3/4] [Fd]6 |[M:1/4] FB |[M:4/4] [Fd]2 [Fd]>[Fd] [Ge]>[Fd] [Fc]>[FB] | [EG]6 [GB]>G | %8
 F2 B>d d2 c2 |[M:3/4] [DB]6 |[M:1/4] A>B |[M:4/4] c>c c>c c2 F2 | d>d d>d [^Fd]2 [Fc]2 | %13
 [Gc]2 [B,FA]>[B,EG] [DF]2 [DB]>[Fd] | [Fc]6 [DB]>[Ec] | [Fd]2 [Fd]>[Fd] [Ge]>[Fd] [Fc]>[FB] | %16
 [EG]6 [GB]>G | F2 B>d d2 c>c |[M:3/4] [DB]6 |] %19
V:2
 z4 z2 z B | [B,,B,]2 [B,,B,]>[B,,B,] [B,,B,]>[B,,B,] [B,,B,]>[B,,B,] | [B,,B,]6 [B,,B,]2 | %3
 [F,A,E]3 [F,A,E] [F,A,E]2 [B,D]>[A,F] |[M:3/4] [B,,B,]6 |[M:1/4] [B,,B,]2 | %6
[M:4/4] [B,,B,]2 [B,,B,]>[B,,B,] [B,,B,]>[B,,B,] [C,B,]>[D,B,] | [E,B,]6 z z/ E/ | %8
 [F,B,D]2 D>[K:treble]F [F,A,F]2[K:bass] [F,A,E]2 |[M:3/4] [B,,B,]6 |[M:1/4] [F,F]>[F,G,F] | %11
[M:4/4] [F,A,F]>[K:treble][F,A,F] [G,B,=E]>[G,B,E] [A,CF]2 [F,A,]2 | %12
 [B,F]>[B,F] [G,B,G]>[G,B,G][K:bass] [D,A,]2 [D,A,]2 | %13
 z z/[K:treble] B/[K:bass] E,>E, [B,,B,]2 [B,,B,]2 | [F,A,]6 [B,,B,]>[B,,B,] | %15
 [B,,B,]2 [B,,B,]>[B,,B,] [B,,B,]>[B,,B,] [B,,B,]>[B,,B,] | [E,B,]6 z z/ E/ | %17
 [F,B,D]2 [F,B,D]>[F,B,F] [F,A,F]2 [F,A,E]>[F,A,E] |[M:3/4] [B,,B,]6 |] %19
V:3
 z4 z2 B,,2 | x8 | x8 | z4 z2 F,2 |[M:3/4] x6 |[M:1/4] x2 |[M:4/4] x8 | z4 z2 [E,B,]2 | %8
 z2 [F,B,]2[K:treble] z4[K:bass] |[M:3/4] x6 |[M:1/4] x2 |[M:4/4] x3/2[K:treble] x13/2 | %12
 x4[K:bass] x4 | [E,G,]2[K:treble][K:bass] z2 z4 | x8 | x8 | z4 z2 [E,B,]2 | x8 |[M:3/4] x6 |] %19
V:4
 x8 | x8 | x8 | x8 |[M:3/4] x6 |[M:1/4] D2 |[M:4/4] x8 | x8 | x8 |[M:3/4] x6 |[M:1/4] x2 | %11
[M:4/4] x8 | x8 | x8 | x8 | x8 | x8 | x8 |[M:3/4] x6 |] %19

